images/cow.svg

<svg width="24" height="24" viewBox="0 0 24 24" fill="none" xmlns="http://www.w3.org/2000/svg">
<path d="M20.0618 7.71507C20.6055 6.602 20.9158 5.39571 20.9747 4.16593C21.0337 2.93615 20.8401 1.70726 20.4051 0.550297C20.3591 0.40933 20.2713 0.284548 20.1525 0.191432C20.0338 0.0983161 19.8895 0.0409644 19.7374 0.0264924C19.5853 0.0120204 19.4322 0.0410651 19.297 0.110023C19.1618 0.178981 19.0505 0.284817 18.977 0.414401C17.9858 2.12821 15.8553 4.89144 14.2944 5.01978H14.2242C13.5066 4.88328 12.778 4.80749 12.0468 4.79329C11.313 4.80732 10.5819 4.88311 9.86164 5.01978H9.80702C8.24617 4.89899 6.0844 2.13576 5.08546 0.42195C5.01579 0.284823 4.90475 0.171374 4.76701 0.0965953C4.62928 0.0218163 4.47133 -0.0107729 4.31404 0.00313434C4.15675 0.0170416 4.00752 0.0767907 3.88608 0.174486C3.76464 0.272181 3.6767 0.403224 3.63388 0.550297C3.19138 1.70319 2.99041 2.92973 3.04267 4.15849C3.09492 5.38725 3.39935 6.59368 3.93824 7.70752C2.58031 7.87361 0.855576 8.2964 0.231239 9.36092C0.0797789 9.61317 0 9.89969 0 10.1914C0 10.4831 0.0797789 10.7696 0.231239 11.0219C0.410014 11.3303 0.676102 11.583 0.998221 11.7502C1.32034 11.9174 1.6851 11.9921 2.04962 11.9656C2.69625 11.9528 3.33552 11.8302 3.93824 11.6032C3.93289 12.0106 3.96685 12.4175 4.0397 12.8187C4.38805 14.1599 4.8447 15.4726 5.40544 16.7446C5.55372 17.0995 5.7176 17.4996 5.80345 17.7412C5.54709 18.3472 5.34601 18.9737 5.20253 19.6136C5.16547 20.0657 5.22384 20.5203 5.3741 20.95C5.52436 21.3796 5.76337 21.7751 6.0766 22.1125C7.20821 23.3658 9.19829 24 12.0234 24C14.8485 24 16.8464 23.3658 17.9702 22.1125C18.285 21.7761 18.525 21.3807 18.6754 20.9508C18.8257 20.521 18.8832 20.0658 18.8443 19.6136C18.7035 18.9739 18.505 18.3474 18.2512 17.7412C18.337 17.4996 18.5009 17.107 18.6414 16.7446C19.208 15.4748 19.6648 14.1616 20.0071 12.8187C20.0859 12.4182 20.1225 12.0109 20.1164 11.6032C20.6994 11.8235 21.317 11.946 21.9426 11.9656C22.3081 11.9917 22.6738 11.9169 22.9971 11.7498C23.3204 11.5828 23.588 11.3303 23.7688 11.0219C23.9202 10.7696 24 10.4831 24 10.1914C24 9.89969 23.9202 9.61317 23.7688 9.36092C23.1522 8.33415 21.4275 7.88116 20.0618 7.71507ZM19.3204 2.70199C19.6018 4.2808 19.327 5.9053 18.5399 7.31492C18.3443 7.08516 18.1359 6.86589 17.9156 6.65809C17.4746 6.26585 16.9713 5.94467 16.425 5.70682C17.5506 4.86209 18.5283 3.84749 19.3204 2.70199ZM4.71866 2.70199C5.5029 3.85546 6.47852 4.87581 7.60623 5.72192C7.06089 5.95321 6.56167 6.27517 6.13123 6.67319C5.90777 6.88032 5.69671 7.09962 5.49909 7.33002C4.7097 5.9157 4.43483 4.28568 4.71866 2.70199ZM1.6438 10.2971C1.57356 10.1763 1.59698 10.1386 1.6438 10.1084C1.8233 9.81391 2.72859 9.35337 4.46113 9.17973C4.37528 9.39867 4.29724 9.61762 4.227 9.84411C3.21245 10.3499 1.85452 10.667 1.6438 10.2971ZM18.4697 12.562C18.1428 13.8014 17.7202 15.0153 17.2054 16.1935C17.0016 16.6551 16.8219 17.1263 16.6669 17.6053L16.6201 17.8394L16.7059 18.0508C16.9528 18.6264 17.1537 19.2196 17.3069 19.825C17.3151 20.0631 17.2745 20.3004 17.1875 20.5233C17.1004 20.7462 16.9686 20.9502 16.7996 21.1235C16.2377 21.7502 14.9578 22.49 12.0312 22.49C9.10464 22.49 7.82474 21.7351 7.26284 21.1235C6.92589 20.7708 6.74397 20.3051 6.75557 19.825C6.91191 19.2195 7.1154 18.6264 7.3643 18.0508L7.45014 17.8394L7.39551 17.6053C7.24899 17.1221 7.07176 16.6481 6.86482 16.1859C6.34102 15.0018 5.91311 13.7801 5.58493 12.5318C5.4361 11.6617 5.509 10.7695 5.79731 9.93273C6.08563 9.09598 6.58065 8.33992 7.23943 7.73016C8.41786 6.58259 11.0869 6.3259 12.0156 6.31835C12.9443 6.3108 15.5587 6.57504 16.8074 7.74526C17.4702 8.34921 17.9687 9.10205 18.2586 9.93702C18.5486 10.772 18.6211 11.6633 18.4697 12.5318V12.562ZM22.3718 10.2971C22.1689 10.6595 20.811 10.3499 19.8432 9.85166C19.7808 9.62517 19.7028 9.40622 19.6169 9.17973C21.3338 9.35337 22.2313 9.81391 22.403 10.1084C22.442 10.1386 22.4577 10.1763 22.3874 10.2971H22.3718Z" fill="#2D3440"/>
</svg>

<svg width="24" height="24" fill="none" xmlns="http://www.w3.org/2000/svg"><path d="M20.0618 7.715a9.072 9.072 0 0 0 .9129-3.549 9.0374 9.0374 0 0 0-.5696-3.6157.7536.7536 0 0 0-.2526-.3589.7946.7946 0 0 0-.4151-.165.8028.8028 0 0 0-.4404.0836.7682.7682 0 0 0-.32.3044c-.9912 1.7138-3.1217 4.477-4.6826 4.6054h-.0702a13.0052 13.0052 0 0 0-2.1774-.2265 13.0618 13.0618 0 0 0-2.1852.2265H9.807C8.2462 4.899 6.0844 2.1358 5.0855.4219A.7661.7661 0 0 0 4.767.0966a.8022.8022 0 0 0-.881.0779.7532.7532 0 0 0-.2521.3758 8.997 8.997 0 0 0-.5912 3.6082 9.026 9.026 0 0 0 .8955 3.549C2.5803 7.8736.8556 8.2964.2312 9.361A1.6123 1.6123 0 0 0 0 10.1914c0 .2917.0798.5782.2312.8305.1788.3084.4449.5611.767.7283a1.9737 1.9737 0 0 0 1.0514.2154 5.6793 5.6793 0 0 0 1.8886-.3624 6.3365 6.3365 0 0 0 .1015 1.2155 25.8296 25.8296 0 0 0 1.3657 3.9259c.1483.3549.3122.755.398.9966a10.9606 10.9606 0 0 0-.6009 1.8724c-.037.4521.0213.9067.1716 1.3364.1503.4296.3893.8251.7025 1.1625C7.2082 23.3658 9.1983 24 12.0234 24c2.8251 0 4.823-.6342 5.9468-1.8875a3.2918 3.2918 0 0 0 .7052-1.1617 3.2142 3.2142 0 0 0 .1689-1.3372 10.9341 10.9341 0 0 0-.5931-1.8724c.0858-.2416.2497-.6342.3902-.9966a24.4619 24.4619 0 0 0 1.3657-3.9259 5.8427 5.8427 0 0 0 .1093-1.2155 5.6706 5.6706 0 0 0 1.8262.3624 1.99 1.99 0 0 0 1.0545-.2158c.3233-.167.5909-.4195.7717-.7279A1.613 1.613 0 0 0 24 10.1914c0-.2917-.0798-.5782-.2312-.8305-.6166-1.0268-2.3413-1.4797-3.707-1.6458Zm-.7414-5.013c.2814 1.5788.0066 3.2033-.7805 4.613a8.2928 8.2928 0 0 0-.6243-.657 5.6148 5.6148 0 0 0-1.4906-.9512c1.1256-.8447 2.1033-1.8593 2.8954-3.0048Zm-14.6017 0c.7842 1.1535 1.7598 2.1738 2.8875 3.02a5.1115 5.1115 0 0 0-1.475.9512 7.977 7.977 0 0 0-.6321.6568c-.7894-1.4143-1.0643-3.0443-.7804-4.628ZM1.6438 10.297c-.0702-.1208-.0468-.1585 0-.1887.1795-.2945 1.0848-.755 2.8173-.9287a9.602 9.602 0 0 0-.2341.6644c-1.0146.5058-2.3725.8229-2.5832.453Zm16.8259 2.2649a24.9832 24.9832 0 0 1-1.2643 3.6315 14.7028 14.7028 0 0 0-.5385 1.4118l-.0468.2341.0858.2114c.2469.5756.4478 1.1688.601 1.7742a1.7535 1.7535 0 0 1-.1194.6983 1.7966 1.7966 0 0 1-.3879.6002c-.5619.6267-1.8418 1.3665-4.7684 1.3665-2.9266 0-4.2065-.7549-4.7684-1.3665-.337-.3527-.5188-.8184-.5072-1.2985a12.0772 12.0772 0 0 1 .6087-1.7742l.0858-.2114-.0546-.2341a11.9817 11.9817 0 0 0-.5307-1.4194 24.3134 24.3134 0 0 1-1.2799-3.6541 5.2527 5.2527 0 0 1 .2124-2.599c.2883-.8368.7834-1.5929 1.4421-2.2026 1.1785-1.1476 3.8475-1.4043 4.7762-1.4119.9287-.0075 3.5431.2567 4.7918 1.427.6628.604 1.1613 1.3567 1.4512 2.1917.29.835.3625 1.7263.2111 2.5948v.0302Zm3.9021-2.2649c-.2029.3624-1.5608.0528-2.5286-.4454-.0624-.2265-.1404-.4455-.2263-.672 1.7169.1737 2.6144.6342 2.7861.9287.039.0302.0547.0679-.0156.1887h-.0156Z" fill="#2D3440"/></svg>
